1.Normal/chrome/Icons/settings.svg

<svg xmlns="http://www.w3.org/2000/svg" width="16" height="16" viewBox="0 0 16 16">
   <path
   style="fill:context-fill;fill-opacity:context-fill-opacity"
   d="M 8 0 C 7.4327906 1.8503717e-17 6.8722331 0.05954595 6.3261719 0.17578125 C 6.139546 0.21549889 5.9951398 0.3630542 5.9609375 0.55078125 L 5.6171875 2.4394531 C 5.6080295 2.4896556 5.59533 2.5397686 5.578125 2.5878906 C 5.4032073 3.0773774 4.8644777 3.3311676 4.375 3.15625 L 2.5703125 2.5117188 C 2.3908678 2.4475493 2.1902553 2.4972601 2.0625 2.6386719 C 1.3070177 3.4748978 0.73428585 4.4621635 0.38671875 5.5371094 C 0.32808345 5.7184553 0.38400746 5.917665 0.52929688 6.0410156 L 1.9921875 7.2832031 C 2.0311334 7.3162667 2.0684802 7.3516697 2.1015625 7.390625 C 2.4380049 7.7868509 2.3884134 8.3803263 1.9921875 8.7167969 L 0.52929688 9.9589844 C 0.38400746 10.082278 0.32808345 10.281621 0.38671875 10.462891 C 0.73428585 11.537903 1.3070177 12.525092 2.0625 13.361328 C 2.1902553 13.502692 2.3908678 13.552469 2.5703125 13.488281 L 4.375 12.84375 C 4.4230566 12.82653 4.4731595 12.813788 4.5234375 12.804688 C 5.0348069 12.711416 5.5239265 13.049112 5.6171875 13.560547 L 5.9609375 15.449219 C 5.9951398 15.63689 6.139546 15.784501 6.3261719 15.824219 C 6.8722331 15.940454 7.4327906 16 8 16 C 8.5668706 16 9.1260867 15.94036 9.671875 15.824219 C 9.858416 15.784596 10.002851 15.63689 10.037109 15.449219 L 10.382812 13.560547 C 10.392032 13.5101 10.404655 13.460299 10.421875 13.412109 C 10.59684 12.922693 11.135494 12.668786 11.625 12.84375 L 13.429688 13.488281 C 13.609076 13.552469 13.809783 13.502692 13.9375 13.361328 C 14.692983 12.525092 15.265704 11.537903 15.613281 10.462891 C 15.671916 10.281621 15.61602 10.082279 15.470703 9.9589844 L 14.005859 8.7167969 C 13.966893 8.6836676 13.931477 8.64834 13.898438 8.609375 C 13.561968 8.2131397 13.609623 7.6196455 14.005859 7.2832031 L 15.470703 6.0410156 C 15.61605 5.917665 15.671921 5.7184553 15.613281 5.5371094 C 15.265704 4.4621635 14.692983 3.4748978 13.9375 2.6386719 C 13.809783 2.4972605 13.609075 2.4475497 13.429688 2.5117188 L 11.625 3.15625 C 11.576995 3.173417 11.526822 3.1861425 11.476562 3.1953125 C 10.965222 3.2885737 10.476083 2.9508131 10.382812 2.4394531 L 10.037109 0.55078125 C 10.002851 0.36312948 9.858416 0.21547065 9.671875 0.17578125 C 9.1260867 0.05969654 8.5668706 0 8 0 z M 8 0.94140625 C 8.3950118 0.94140625 8.7862984 0.97318466 9.1699219 1.0371094 L 9.4550781 2.6074219 C 9.641525 3.6300196 10.621849 4.3095599 11.644531 4.1230469 C 11.745049 4.1047039 11.845126 4.0773687 11.941406 4.0429688 L 13.443359 3.5058594 C 13.943501 4.1109323 14.34041 4.7950335 14.615234 5.53125 L 13.398438 6.5644531 C 12.605968 7.2373566 12.508794 8.4262794 13.181641 9.21875 C 13.247806 9.2966794 13.318555 9.3693822 13.396484 9.4355469 L 14.615234 10.46875 C 14.34041 11.204938 13.943501 11.889058 13.443359 12.494141 L 11.941406 11.957031 C 10.962394 11.607196 9.8849922 12.116786 9.5351562 13.095703 C 9.5008032 13.191986 9.4734311 13.29206 9.4550781 13.392578 L 9.1699219 14.962891 C 8.7862984 15.026891 8.3950118 15.058594 8 15.058594 C 7.6047059 15.058594 7.2139558 15.026891 6.8300781 14.962891 L 6.5429688 13.392578 C 6.3564371 12.369802 5.3762356 11.690412 4.3535156 11.876953 C 4.2529509 11.895313 4.1548577 11.922681 4.0585938 11.957031 L 2.5566406 12.494141 C 2.0564712 11.889058 1.6596362 11.204938 1.3847656 10.46875 L 2.6015625 9.4355469 C 3.394033 8.7626058 3.4912441 7.5737018 2.8183594 6.78125 C 2.7521947 6.70333 2.6794825 6.6306151 2.6015625 6.5644531 L 1.3847656 5.53125 C 1.6596362 4.7950335 2.0564712 4.1109323 2.5566406 3.5058594 L 4.0585938 4.0429688 C 5.0376338 4.3928416 6.114999 3.8832616 6.4648438 2.9042969 C 6.4992438 2.8080334 6.5246346 2.707996 6.5429688 2.6074219 L 6.8300781 1.0371094 C 7.2139558 0.97310008 7.6047059 0.94140625 8 0.94140625 z M 8 5.5 C 6.6193 5.5 5.5 6.61929 5.5 8 C 5.5 9.3807 6.6193 10.5 8 10.5 C 9.3807 10.5 10.5 9.3807 10.5 8 C 10.5 6.61929 9.3807 5.5 8 5.5 z M 8 6.5 C 8.8284 6.5 9.5 7.17157 9.5 8 C 9.5 8.8284 8.8284 9.5 8 9.5 C 7.17159 9.5 6.5 8.8284 6.5 8 C 6.5 7.17157 7.17159 6.5 8 6.5 z " />
</svg>

<svg xmlns="http://www.w3.org/2000/svg" width="16" height="16">
  <path style="fill:context-fill;fill-opacity:context-fill-opacity" d="M8 0c-.567 0-1.128.06-1.674.176a.47.47 0 0 0-.365.375l-.344 1.888a.94.94 0 0 1-1.242.717L2.57 2.512a.47.47 0 0 0-.507.127A7.994 7.994 0 0 0 .387 5.537a.47.47 0 0 0 .142.504l1.463 1.242a.94.94 0 0 1 0 1.434L.53 9.959a.471.471 0 0 0-.142.504 7.994 7.994 0 0 0 1.675 2.898.47.47 0 0 0 .508.127l1.805-.644a.94.94 0 0 1 1.242.717l.344 1.888a.47.47 0 0 0 .365.375 8.037 8.037 0 0 0 3.346 0 .47.47 0 0 0 .365-.375l.346-1.888a.94.94 0 0 1 1.242-.717l1.805.644a.47.47 0 0 0 .508-.127 7.994 7.994 0 0 0 1.675-2.898.47.47 0 0 0-.142-.504l-1.465-1.242a.94.94 0 0 1 0-1.434l1.465-1.242a.47.47 0 0 0 .142-.504 7.994 7.994 0 0 0-1.675-2.898.47.47 0 0 0-.508-.127l-1.805.644a.947.947 0 0 1-1.242-.717L10.037.551a.47.47 0 0 0-.365-.375A8.029 8.029 0 0 0 8 0zm0 .941c.395 0 .786.032 1.17.096l.285 1.57a1.883 1.883 0 0 0 2.486 1.436l1.502-.537c.5.605.897 1.289 1.172 2.025l-1.217 1.033a1.884 1.884 0 0 0-.002 2.872l1.22 1.033a7.05 7.05 0 0 1-1.173 2.025l-1.502-.537a1.882 1.882 0 0 0-2.486 1.436l-.285 1.57a7.11 7.11 0 0 1-2.34 0l-.287-1.57a1.883 1.883 0 0 0-2.484-1.436l-1.502.537a7.05 7.05 0 0 1-1.172-2.025l1.217-1.033a1.884 1.884 0 0 0 0-2.872L1.385 5.531a7.05 7.05 0 0 1 1.172-2.025l1.502.537a1.882 1.882 0 0 0 2.484-1.436l.287-1.57A7.108 7.108 0 0 1 8 .941zM8 5.5a2.5 2.5 0 1 0 0 5 2.5 2.5 0 0 0 0-5zm0 1a1.5 1.5 0 1 1 0 3 1.5 1.5 0 0 1 0-3z"/>
</svg>
